X: 7
T: The Swallowtail
R: jig
M: 6/8
L: 1/8
K: Dmaj
|: F | GEE BEE | GEE BAG | FEE AEE | dcd AGF |
GEE BEE | GEE B2c | dcd AGF | GEE 2E :|
E | Bcd e2f | e2f edB | Bcd e2f | edB 3d |
Bcd e2f | e2f edB | bcb AGF | GEE 2E :|


Tune 106	Setting 21780

